astro/public/img/icons/identity-basics.svg

<?xml version="1.0" encoding="UTF-8"?>
<svg width="70px" height="70px" viewBox="0 0 70 70" version="1.1" xmlns="http://www.w3.org/2000/svg" xmlns:xlink="http://www.w3.org/1999/xlink">
    <title>identity-basics</title>
    <defs>
        <linearGradient x1="0%" y1="21.5667831%" x2="100%" y2="78.4332169%" id="linearGradient-1">
            <stop stop-color="#A4AEBE" offset="0%"></stop>
            <stop stop-color="#2D53F5" offset="100%"></stop>
        </linearGradient>
    </defs>
    <g id="identity-basics" stroke="none" stroke-width="1" fill="none" fill-rule="evenodd">
        <g id="004-blocks" transform="translate(5.000000, 12.000000)" fill="url(#linearGradient-1)" fill-rule="nonzero">
            <path d="M59.2128906,7.70680628 L57.0683594,7.70680628 L57.0683594,1.80628272 C57.0683594,0.808732984 56.2682109,0 55.28125,0 L45.75,0 C44.7630391,0 43.9628906,0.808732984 43.9628906,1.80628272 L43.9628906,7.70680628 L38.0058594,7.70680628 L38.0058594,1.80628272 C38.0058594,0.808732984 37.2057109,0 36.21875,0 L26.6875,0 C25.7005391,0 24.9003906,0.808732984 24.9003906,1.80628272 L24.9003906,7.70680628 L22.875,7.70680628 C21.8880391,7.70680628 21.0878906,8.51553927 21.0878906,9.51308901 L21.0878906,25.0471204 L17.0371094,25.0471204 L17.0371094,19.1465969 C17.0371094,18.1490471 16.2369609,17.3403141 15.25,17.3403141 L5.71875,17.3403141 C4.73178906,17.3403141 3.93164063,18.1490471 3.93164063,19.1465969 L3.93164063,25.0471204 L1.78710938,25.0471204 C0.800148437,25.0471204 0,25.8558534 0,26.8534031 L0,44.1937173 C0,45.191267 0.800148438,46 1.78710938,46 L59.2128906,46 C60.1998516,46 61,45.191267 61,44.1937173 C61,42.268822 61,11.4379843 61,9.51308901 C61,8.51553927 60.1998516,7.70680628 59.2128906,7.70680628 Z M47.5371094,3.61256545 L53.4941406,3.61256545 L53.4941406,7.70680628 L47.5371094,7.70680628 L47.5371094,3.61256545 Z M28.4746094,3.61256545 L34.4316406,3.61256545 L34.4316406,7.70680628 L28.4746094,7.70680628 L28.4746094,3.61256545 Z M24.6621094,11.3193717 L57.4257812,11.3193717 L57.4257812,25.0471204 C55.6084102,25.0471204 26.4749531,25.0471204 24.6621094,25.0471204 L24.6621094,11.3193717 Z M7.50585938,20.9528796 L13.4628906,20.9528796 L13.4628906,25.0471204 L7.50585938,25.0471204 L7.50585938,20.9528796 Z M3.57421875,28.6596859 L39.1972656,28.6596859 L39.1972656,42.3874346 L3.57421875,42.3874346 L3.57421875,28.6596859 Z M57.4257813,42.3874346 L42.7714844,42.3874346 L42.7714844,28.6596859 L57.4257813,28.6596859 L57.4257813,42.3874346 Z" id="Shape"></path>
        </g>
    </g>
</svg>

<svg xmlns="http://www.w3.org/2000/svg" width="70" height="70"><defs><linearGradient id="a" x1="0%" x2="100%" y1="21.567%" y2="78.433%"><stop offset="0%" stop-color="#A4AEBE"/><stop offset="100%" stop-color="#2D53F5"/></linearGradient></defs><path fill="url(#a)" d="M59.213 7.707h-2.145v-5.9c0-.998-.8-1.807-1.787-1.807H45.75c-.987 0-1.787.809-1.787 1.806v5.9h-5.957v-5.9c0-.997-.8-1.806-1.787-1.806h-9.532C25.701 0 24.9.809 24.9 1.806v5.9h-2.025c-.987 0-1.787.81-1.787 1.807v15.534h-4.05v-5.9c0-.998-.801-1.807-1.788-1.807H5.719c-.987 0-1.787.809-1.787 1.807v5.9H1.787C.8 25.047 0 25.856 0 26.853v17.34C0 45.192.8 46 1.787 46h57.426C60.2 46 61 45.191 61 44.194V9.514c0-.998-.8-1.807-1.787-1.807ZM47.537 3.613h5.957v4.094h-5.957V3.613Zm-19.062 0h5.957v4.094h-5.957V3.613Zm-3.813 7.706h32.764v13.728H24.662V11.32ZM7.506 20.953h5.957v4.094H7.506v-4.094ZM3.574 28.66h35.623v13.727H3.574V28.66Zm53.852 13.727H42.77V28.66h14.655v13.727Z" transform="translate(5 12)"/></svg>
